X:107
T:Glengesh Hornpipe, The
T:Dr. Peter's Hornpipe
R:hornpipe
S:Anders Clarh\"all
Z:id:hn-hornpipe-107
M:C|
L:1/8
K:D
dB|ADFA BG (3Bcd|ADFA d2cd|eAce fd (3fga|edcB AGFG|
ADFA BG (3Bcd|ADFA d2cd|eAce faec|d2f2 d2:|
|:cd|eAce fdfa|eAce f2fd|ea^gf edcB|(3ABA ^GB A2=G2|
FDFA dfaf|g2B2 b2ag|(3faf df (3efe ce|dfec d2:|

